X:30
T:B030-  Blush not redder than the morning
S:via BBBM, from 'Choice Ayres', 3rd bk, 1681
Q:1/4=120
L:1/4
M:C|
K:G
B3/2 c/2dd|e(d/2c/2)B(A/2G/2)|c3/2d/2 (e/2d/2) (c/2B/2)|\
c3/2d/2BA| d3/2d/2g(=f/2e/2)| =f3/2 g/2^cc|\
(d/2e/2d/2)e/2 =f (e/2d/2)| d3/2 ^c/2dd|(e/2f/2e/2)d/2 cB|\
A3/2 G/2 FA|(B/2c/2B/2)c/2 (d/2c/2B/2)c/2|c3/2 B/2A.G|]

